lib/brands/logos/reduct-video-logo-1.svg

<svg xmlns="http://www.w3.org/2000/svg" fill="none" aria-hidden="true" viewBox="0 0 326 36"><g id="Reduct Video Logo 1" clip-path="url(#clip0_93_16176)"><path id="Vector" fill="black" d="M184.384 13.1112V23.7997H173.904V34.8356H195.201V13.1112H184.384Z"/><path id="Vector_2" fill="black" d="M184.384 1.72976H162.749V34.8357C168.724 34.8357 173.567 29.894 173.567 23.7998V12.7657H184.384C190.357 12.7657 195.201 7.824 195.201 1.72976H184.384V1.72976ZM24.0421 29.5591C24.0421 31.9979 24.3841 33.5887 24.6762 34.8321H20.725C20.3848 33.7383 20.1407 32.0959 20.1407 29.707V26.6732C20.1407 21.9453 17.6521 20.0054 13.1665 20.0054H4.04739V34.8321H0V1.74757H15.1189C21.7992 1.74757 25.0682 5.13227 25.0682 10.4534C25.0682 14.882 22.3853 17.9674 18.7762 18.8118C21.8491 19.7079 24.0438 21.1989 24.0438 26.0747V29.5591H24.0421ZM20.8248 10.8008C20.8248 6.9707 18.9223 5.08239 14.6789 5.08239H4.04739V16.9217H14.629C19.1663 16.9217 20.8248 14.5827 20.8248 10.8025V10.8008ZM49.0603 27.1702H52.6232C52.1315 30.9522 49.3044 35.6284 41.2078 35.6284C32.8191 35.6284 29.112 29.8566 29.112 22.3461C29.112 14.9319 33.1113 9.16185 41.2078 9.16185C48.5241 9.16185 52.6695 14.287 52.6695 21.5498C52.6695 22.1965 52.6695 22.6935 52.5715 23.2921H32.967C33.2591 30.1078 36.4782 32.5947 41.3557 32.5947C46.1335 32.5947 48.3282 30.3055 49.0621 27.1702H49.0603ZM33.0632 20.3046H48.8644C48.6702 14.5845 45.7932 12.1956 41.2577 12.1956C36.626 12.1956 33.5994 14.4349 33.0632 20.3064V20.3046ZM80.0784 0.00712568V34.8339H76.1771V30.0561C74.5186 33.5887 71.4457 35.6266 66.9583 35.6266C59.3017 35.6266 55.7905 30.0063 55.7905 22.3942C55.7905 14.7341 59.3035 9.16007 66.96 9.16007C71.4457 9.16007 74.5168 11.1499 76.1771 14.6825V0.00712568H80.0784V0.00712568ZM76.1771 22.3942C76.1771 15.379 72.91 12.3951 67.7403 12.3951C62.1823 12.3951 59.7417 15.6783 59.7417 22.3942C59.7417 29.0621 62.1823 32.3934 67.7403 32.3934C72.91 32.3934 76.1771 29.4095 76.1771 22.3942V22.3942ZM106.559 9.95814V34.8303H102.658V28.5134C101.195 32.9403 98.3166 35.6284 93.5869 35.6284C87.441 35.6284 84.662 32.347 84.662 25.8306V9.95814H88.5633V25.3817C88.5633 30.9041 90.954 32.347 94.7092 32.347C99.7809 32.347 102.66 27.7189 102.66 19.462V9.95636H106.561L106.559 9.95814ZM123.194 9.16185C130.509 9.16185 134.168 13.2912 134.558 19.0612H130.899C130.313 14.9817 127.874 12.3951 123.338 12.3951C118.171 12.3951 114.95 15.2311 114.95 22.3942C114.95 29.609 118.073 32.3934 123.192 32.3934C128.118 32.3934 130.653 29.5573 131.141 25.3282H134.846C134.56 31.0502 130.608 35.6284 123.196 35.6284C115.197 35.6284 111.002 30.008 111.002 22.396C111.002 14.784 115.295 9.16363 123.196 9.16363L123.194 9.16185ZM141.532 29.0104V13.0899H136.899V10.8524L141.872 9.60898L143.335 4.43396H145.433V9.95636H153.48V13.0917H145.435V31.5988H153.188V34.8321H147.434C142.752 34.8321 141.534 32.9919 141.534 29.0104H141.532ZM233.781 1.74045L222.077 34.8214H216.225L204.473 1.74223H208.715L217.786 27.2629C218.323 28.6997 218.795 30.1602 219.2 31.6398C219.59 30.1969 220.079 28.7058 220.565 27.2629L229.684 1.74045H233.781ZM237.246 1.74045H242.268V5.86978H237.246V1.74045ZM237.78 9.94923H241.684V34.8232H237.78V9.94923ZM270.502 0V34.8232H266.599V30.049C264.94 33.5798 261.869 35.6195 257.383 35.6195C249.727 35.6195 246.215 29.9973 246.215 22.3871C246.215 14.7252 249.727 9.15294 257.383 9.15294C261.869 9.15294 264.942 11.1446 266.599 14.6753V0H270.502ZM266.6 22.3871C266.6 15.3719 263.333 12.3862 258.165 12.3862C252.605 12.3862 250.167 15.6694 250.167 22.3871C250.167 29.0514 252.605 32.3844 258.165 32.3844C263.333 32.3862 266.6 29.4006 266.6 22.3871V22.3871ZM294.789 27.1613H298.351C297.862 30.9433 295.035 35.6177 286.941 35.6177C278.554 35.6177 274.847 29.8459 274.847 22.3355C274.847 14.9247 278.846 9.15294 286.941 9.15294C294.255 9.15294 298.4 14.2763 298.4 21.5392C298.4 22.1858 298.4 22.6828 298.302 23.2796H278.698C278.99 30.0953 282.209 32.5822 287.085 32.5822C291.864 32.584 294.057 30.2966 294.789 27.1613V27.1613ZM278.796 20.2975H294.595C294.399 14.5774 291.522 12.1885 286.987 12.1885C282.355 12.1885 279.33 14.4259 278.796 20.2975ZM301.47 22.3372C301.47 14.9247 305.517 9.15472 313.76 9.15472C321.953 9.15472 326 14.9746 326 22.3372C326 29.7978 321.953 35.6195 313.76 35.6195C305.517 35.6195 301.47 29.8477 301.47 22.3372V22.3372ZM313.76 32.3862C319.27 32.3862 322.051 29.3525 322.051 22.3871C322.051 15.3719 319.27 12.388 313.76 12.388C308.25 12.388 305.421 15.3719 305.421 22.3871C305.421 29.3525 308.25 32.3862 313.76 32.3862Z"/></g><defs><clipPath id="clip0_93_16176"><rect width="326" height="35.6284" fill="white"/></clipPath></defs></svg>

<svg xmlns="http://www.w3.org/2000/svg" fill="none" aria-hidden="true" viewBox="0 0 326 36"><g fill="#000" clip-path="url(#a)"><path d="M184.384 13.111V23.8h-10.48v11.036h21.297V13.11h-10.817Z"/><path d="M184.384 1.73h-21.635v33.106c5.975 0 10.818-4.942 10.818-11.036V12.766h10.817c5.973 0 10.817-4.942 10.817-11.036h-10.817ZM24.042 29.56c0 2.438.342 4.029.634 5.272h-3.951c-.34-1.094-.584-2.736-.584-5.125v-3.034c0-4.728-2.489-6.668-6.974-6.668h-9.12v14.827H0V1.748h15.119c6.68 0 9.95 3.384 9.95 8.705 0 4.429-2.684 7.514-6.293 8.359 3.073.896 5.268 2.387 5.268 7.263v3.484h-.002ZM20.825 10.8c0-3.83-1.903-5.718-6.146-5.718H4.047v11.84H14.63c4.537 0 6.196-2.34 6.196-6.12v-.001ZM49.06 27.17h3.563c-.491 3.782-3.319 8.458-11.415 8.458-8.389 0-12.096-5.771-12.096-13.282 0-7.414 4-13.184 12.096-13.184 7.316 0 11.462 5.125 11.462 12.388 0 .646 0 1.143-.099 1.742H32.968c.292 6.816 3.511 9.303 8.389 9.303 4.777 0 6.972-2.29 7.706-5.425h-.002Zm-15.997-6.865h15.801c-.194-5.72-3.07-8.11-7.606-8.11-4.632 0-7.659 2.24-8.195 8.111v-.001ZM80.078.007v34.827h-3.9v-4.778c-1.66 3.533-4.732 5.57-9.22 5.57-7.656 0-11.167-5.62-11.167-13.232 0-7.66 3.513-13.234 11.169-13.234 4.486 0 7.557 1.99 9.217 5.522V.007h3.901Zm-3.9 22.387c0-7.015-3.268-9.999-8.438-9.999-5.558 0-7.998 3.283-7.998 10 0 6.667 2.44 9.998 7.998 9.998 5.17 0 8.437-2.983 8.437-9.999Zm30.381-12.436V34.83h-3.901v-6.317c-1.463 4.427-4.341 7.115-9.071 7.115-6.146 0-8.925-3.281-8.925-9.797V9.958h3.901v15.424c0 5.522 2.391 6.965 6.146 6.965 5.072 0 7.951-4.628 7.951-12.885V9.956h3.901l-.002.002Zm16.635-.796c7.315 0 10.974 4.13 11.364 9.9h-3.659c-.586-4.08-3.025-6.667-7.561-6.667-5.167 0-8.388 2.836-8.388 10 0 7.214 3.123 9.998 8.242 9.998 4.926 0 7.461-2.836 7.949-7.065h3.705c-.286 5.722-4.238 10.3-11.65 10.3-7.999 0-12.194-5.62-12.194-13.232 0-7.612 4.293-13.232 12.194-13.232l-.002-.002Zm18.338 19.848V13.09h-4.633v-2.238l4.973-1.243 1.463-5.175h2.098v5.522h8.047v3.136h-8.045v18.507h7.753v3.233h-5.754c-4.682 0-5.9-1.84-5.9-5.822h-.002Zm92.249-27.27-11.704 33.081h-5.852L204.473 1.742h4.242l9.071 25.52a50.847 50.847 0 0 1 1.414 4.378c.39-1.443.879-2.934 1.365-4.377l9.119-25.523h4.097Zm3.465 0h5.022v4.13h-5.022V1.74Zm.534 8.21h3.904v24.873h-3.904V9.95ZM270.502 0v34.823h-3.903V30.05c-1.659 3.53-4.73 5.57-9.216 5.57-7.656 0-11.168-5.622-11.168-13.232 0-7.662 3.512-13.234 11.168-13.234 4.486 0 7.559 1.992 9.216 5.522V0h3.903ZM266.6 22.387c0-7.015-3.267-10-8.435-10-5.56 0-7.998 3.282-7.998 10 0 6.664 2.438 9.997 7.998 9.997 5.168.002 8.435-2.983 8.435-9.997Zm28.189 4.774h3.562c-.489 3.782-3.316 8.457-11.41 8.457-8.387 0-12.094-5.772-12.094-13.283 0-7.41 3.999-13.182 12.094-13.182 7.314 0 11.459 5.123 11.459 12.386 0 .647 0 1.144-.098 1.74h-19.604c.292 6.816 3.511 9.303 8.387 9.303 4.779.002 6.972-2.285 7.704-5.42Zm-15.993-6.864h15.799c-.196-5.72-3.073-8.109-7.608-8.109-4.632 0-7.657 2.238-8.191 8.11Zm22.674 2.04c0-7.412 4.047-13.182 12.29-13.182 8.193 0 12.24 5.82 12.24 13.182 0 7.46-4.047 13.283-12.24 13.283-8.243 0-12.29-5.772-12.29-13.283Zm12.29 10.05c5.51 0 8.291-3.035 8.291-10 0-7.015-2.781-9.999-8.291-9.999s-8.339 2.984-8.339 10c0 6.964 2.829 9.998 8.339 9.998Z"/></g><defs><clipPath id="a"><path fill="#fff" d="M0 0h326v35.628H0z"/></clipPath></defs></svg>
